src/16/actions/mark-location.svg

<svg xmlns="http://www.w3.org/2000/svg" width="16" height="16" viewBox="0 0 16 16">
 <defs>
  <style id="current-color-scheme" type="text/css">
   .ColorScheme-Text { color:#5d656b; } .ColorScheme-Highlight { color:#5294e2; }
  </style>
 </defs>
 <path style="fill:currentColor" class="ColorScheme-Text" d="M 8 1.0039062 C 5.2386 1.0039062 3 3.2425062 3 6.0039062 C 3 6.1764962 3.01425 6.3358163 3.03125 6.5039062 C 3.04495 6.6711563 3.06705 6.8400763 3.09375 7.0039062 C 3.66623 10.518306 6 13.005859 8 15.005859 C 10 13.005859 12.33375 10.518406 12.90625 7.0039062 C 12.93295 6.8400763 12.95505 6.6711563 12.96875 6.5039062 C 12.98585 6.3358163 13 6.1764962 13 6.0039062 C 13 3.2425062 10.7614 1.0039062 8 1.0039062 z M 8 4.0039062 C 9.1046 4.0039062 10 4.8993362 10 6.0039062 C 10 7.1084763 9.10457 8.0039062 8 8.0039062 C 6.89543 8.0039062 6 7.1084762 6 6.0039062 C 6 4.8993363 6.89543 4.0039062 8 4.0039062 z"/>
</svg>

<svg xmlns="http://www.w3.org/2000/svg" width="16" height="16"><defs><style id="current-color-scheme" type="text/css"></style></defs><path d="M8 1.004a5 5 0 0 0-5 5c0 .172.014.332.031.5.014.167.036.336.063.5C3.666 10.518 6 13.006 8 15.006c2-2 4.334-4.488 4.906-8.002.027-.164.049-.333.063-.5.017-.168.031-.328.031-.5a5 5 0 0 0-5-5zm0 3a2 2 0 1 1 0 4 2 2 0 0 1 0-4z" fill="currentColor" color="#5d656b"/></svg>
